X: 792
T: The Corporal
R: reel
B: Robert Bremner "A Collection of Scots Reels or Country Dances" 1757 p.79 #2
S: http://imslp.org/wiki/A_Collection_of_Scots_Reels_or_Country_Dances_(Bremner,_Robert)
Z: 2013 John Chambers <jc:trillian.mit.edu>
M: C
L: 1/8
K: Gmix
% - - - - - - - - - - - - - - - - - - - - - - - - -
V: 1
(c |\
B)GGA B>cdf | AFcA cFF(A |\
B)G-GA Bcdg | fdTcA G2G :|
|: (e |\
g)dg^f gdd(e | f)cfe fcc(f |\
g)dg^f gdd(c | B)GAB G2G :|
% - - - - - - - - - - - - - - - - - - - - - - - - -
V: 2 clef=bass middle=d
z |\
g2g2 g2g2 | f2f2 f2f2 |\
g2g2 g2g2 | d2d2 G2G :|\
|: z |
g2g2 g2g2 | f2f2 f2f2 |\
g2g2 g2g2 | d2d2 G2G :|
% - - - - - - - - - - - - - - - - - - - - - - - - -

%%sep 1 1 500
%%sep 1 1 500
